X:573
T:Sugar in the gourd
S:Bruce & Emmett's Drummers and Fifers Guide (1862), p. 57
M:2/4
L:1/16
Q:1/4=100
K:Ador
%%MIDI program 72
%%MIDI transpose 8
%%MIDI ratio 3 1
AG|EA^GB ABcA|=GEGA G2cd|edef gedf|ea^gb a2 AB|cAB^G ABcA|
=GEGA G2cd|egfa gefd|cAB^G A2::A^G|Aa^gb a2ef|=gedB G2GF|
Ggfa g2ef|gedB A2AG|EA^GB ABcA|=GEGA G2cd|egfa gefd|cAB^G A2:|
